icons/camera-minimal.svg

<svg xmlns="http://www.w3.org/2000/svg" viewBox="0 0 24 24" fill="currentColor">
  <path d="M8.80002 4.19995c-.5858 0-1.05002.46422-1.05002 1.04999v1.30011c0 .41421-.33579.75-.75.75-1.78579 0-3.25 1.46421-3.25 3.24995v6c0 1.7858 1.46421 3.25 3.25 3.25h10c1.7858 0 3.25-1.4642 3.25-3.25v-6c0-1.78574-1.4642-3.24995-3.25-3.24995-.4142 0-.75-.33579-.75-.75 0-.01682.0006-.03351.0016-.05005-.001-.01654-.0016-.03323-.0016-.05005V5.24994c0-.58579-.4642-1.04999-1.05-1.04999H8.80002ZM6.25 5.24994v.60957c-2.26066.36187-4 2.33139-4 4.69049v6c0 2.6143 2.13579 4.75 4.75 4.75h10c2.6142 0 4.75-2.1357 4.75-4.75v-6c0-2.3591-1.7393-4.32862-4-4.69049v-.60957c0-1.41421-1.1358-2.54999-2.55-2.54999H8.80002c-1.4142 0-2.55002 1.13576-2.55002 2.54999ZM9.75 13.55c0-1.2426 1.0074-2.25 2.25-2.25s2.25 1.0074 2.25 2.25c0 1.2427-1.0074 2.25-2.25 2.25s-2.25-1.0073-2.25-2.25ZM12 9.80005c-2.07107 0-3.75 1.67895-3.75 3.74995 0 2.0711 1.67893 3.75 3.75 3.75 2.0711 0 3.75-1.6789 3.75-3.75 0-2.071-1.6789-3.74995-3.75-3.74995Z"/>
</svg>

<svg width="24" height="24" viewBox="0 0 24 24" fill="none" xmlns="http://www.w3.org/2000/svg">
<path fill-rule="evenodd" clip-rule="evenodd" d="M8.80002 4.19995C8.21422 4.19995 7.75 4.66417 7.75 5.24994V6.54993V6.55005C7.75 6.96426 7.41421 7.30005 7 7.30005C5.21421 7.30005 3.75 8.76426 3.75 10.55V16.55C3.75 18.3358 5.21421 19.8 7 19.8H17C18.7858 19.8 20.25 18.3358 20.25 16.55V10.55C20.25 8.76426 18.7858 7.30005 17 7.30005C16.5858 7.30005 16.25 6.96426 16.25 6.55005C16.25 6.53323 16.2506 6.51654 16.2516 6.5C16.2506 6.48346 16.25 6.46677 16.25 6.44995V5.24994C16.25 4.66415 15.7858 4.19995 15.2 4.19995H8.80002ZM6.25 5.24994V5.85951C3.98934 6.22138 2.25 8.1909 2.25 10.55V16.55C2.25 19.1643 4.38579 21.3 7 21.3H17C19.6142 21.3 21.75 19.1643 21.75 16.55V10.55C21.75 8.1909 20.0107 6.22138 17.75 5.85951V5.24994C17.75 3.83573 16.6142 2.69995 15.2 2.69995H8.80002C7.38582 2.69995 6.25 3.83571 6.25 5.24994ZM9.75 13.55C9.75 12.3074 10.7574 11.3 12 11.3C13.2426 11.3 14.25 12.3074 14.25 13.55C14.25 14.7927 13.2426 15.8 12 15.8C10.7574 15.8 9.75 14.7927 9.75 13.55ZM12 9.80005C9.92893 9.80005 8.25 11.479 8.25 13.55C8.25 15.6211 9.92893 17.3 12 17.3C14.0711 17.3 15.75 15.6211 15.75 13.55C15.75 11.479 14.0711 9.80005 12 9.80005Z" fill="black"/>
</svg>
